X:1
T:Ego dormio
T:Ego dormio
T:Giovanni Girolamo Kapsperger
T:Source : Libro primo di mottetti passeggiati a una voce--- Roma---1612. Racolta del Sig.Francesco de Nobile Editor : André Vierendeels (29/10/15).
T:Notes : Original clefs : F4, F4 Editorial accidentals above the staff Note values have been halved in 3-beat measures 
C:Giovanni Girolamo Kapsperger
%%score 1 2
L:1/8
Q:1/4=90
M:4/4
K:F
V:1 bass nm="Bass" snm="B"
V:2 bass nm="BC" snm="BC"
V:1
 G,8- | G,4 F,4- | F,4 D,4- | D,4 C,4 | D,,8 | D,3 E, F,3 G, | A,3 A, B,3 C | D3 E F2 B,,2 | %8
w: E-|* go|_ dor-|* mi-|o,|e- * * *||* * * go|
 B,,4 B,, A,,2 G,, | F,,4 F,, E,,2 D,, | C,,6 C,,2 | C,,8 | C2 D/C/B,/A,/ G,2 A,/B,/C/B,/ | %13
w: dor- * * *||* mi-|o,|et _ _ _ _ _ cor _ _ _|
 A,2 G,/A,/B,/A,/ G,2 A,/B,/C/F,/ | G,6 G,2 | F,8 | D,4 E,4 | ^F,2 F,2 G,4- | G,4 ^F,4 | G,8 | %20
w: _ me- * * * * * * * um|vi- gi-|lat,|vox di-|le- cti me-||i|
 G,2 G,/A,/=B,/G,/ C3 C, | E,3 F, G,>A, G,/F,/E,/D,/ | C,3 B,,/A,,/ G,,/A,,/ E,,2 F,, | G,,8 | %24
w: pul- san- * * * * *||||
 C,,8 | E6 ^C,2 | ^C,8 | D,2 E,2 F,4- | F,4 E,4 | F,8 |[M:3/4] F,2 F,2 G,2 | A,4 F,2 | B,4 A,2 | %33
w: tis,|a- pe-|ri|mi- * *||hi,|a- pe- ri|mi- hi|so- ror|
[M:4/4] G,8 | F,6 F,2 | F,4 E,D,E,C, | D,8 | C,6 CC | B,B,/B,/4B,/4 A,G, A,4 | G,3 G,, A,,3 A,, | %40
w: me-|a, a-|mi- ca _ _ _|me-|a, co- lum-|* * * * * ba me-|a, im- ma- cu-|
 C,4 B,,4 | A,/[A,,B,]/C/F,/ G,/A,/F,/G,/ A,/B,/G,/A,/ F,/G,/A,/D,/ | %42
w: la- ta|me- * * * * * * * * * * * * * * *|
 E,/F,/D,/A,/ B,/C/A,/B,/ A,/G,/F,/E,/ D,>E, | D,/C,/4B,,/4 A,,2 G,, A,,4 | D,,8 | %45
w: ||a,|
[M:3/4] D,3 E, ^F,2 | G,4 G,2 |[M:4/4] B,4 A,4 | C8 | F,6 F,2 | F,4 E,4 | G,8 | C,6 _E,2 | %53
w: a- pe- ri|mi- hi|so- ror|me-|a, a-|mi- ca|me-|a, co-|
 _E,4 D,4 | F,8 | B,,6 B,,2 | _E,2 D,2 C,2 B,,2 | D,8 | G,,8 | %59
w: lum- ba|me-|a, im-|ma- cu- la- ta|me-|a.|
[M:3/4] G,2 A,/G,/F,/E,/ D,/C,/D,/E,/ | F,2 G,/F,/E,/D,/ C,2 | C2 D/C/B,/A,/ G,/F,/G,/A,/ | %62
w: Al le- * * * * * * *|lu- * * * * ia,|Al- le- * * * * * * *|
 B,2 C/B,/A,/G,/ F,2 |[M:4/4] A,4 E,4 | G,4 D,4 | F,4 C,4 | _E,4 B,,4 | B,,C,D,E, F,E,F,D, | %68
w: lu- * * * * ia,|Al- le-|lu- ia,|Al- le-|lu- ia,|Al- * * * * * * *|
 E,F,G,F, G,E,F,G, | ^F,3 G, A,2 D,2 | E,3 F, G,E,F,G, | C,D,E,F, G,A,B,C | D2 CD _EDCB, | %73
w: ||||* le- * * * * *|
 A,G,F,E, D,2 C,B,, | A,,G,,F,,E,, D,,4 | !fermata!G,,8 |] %76
w: |* * * * lu-|ia.|
V:2
 G,8 | D,8 | D,8 | _E,8 | D,8 | D,8- | D,8 | D,4 B,,4 | B,,8 | F,,8 | C,8- | C,8 | C,8 | %13
 F,2 B,,4 A,,2 | C,8 | F,,8 | D,4 ^C,4 | D,4 B,,4 | A,,8 | G,,8 | G,4 C,4 | C,8- | C,8 | G,,8 | %24
 C,8 | ^C,4 A,,4 | A,,8 | B,,4 A,,4 | G,,8 | F,,8 |[M:3/4] F,2 F,2 G,2 | A,4 F,2 | B,4 A,2 | %33
[M:4/4] G,8 | F,8 | F,4 E,4 | D,8 | C,8 | G,,4 D,4 | G,,4 A,,4 | C,4 B,,4 | A,,8- | A,,8- | A,,8 | %44
 D,8 |[M:3/4] D,3 E, ^F,2 | G,4 G,2 |[M:4/4] B,4 A,4 | C8 | F,8 | F,4 E,4 | G,8 | C,4 _E,4- | %53
 E,4 D,4 | F,8 | B,,8 | C,2 B,,2 A,,2 G,,2 | D,8 | G,,8 |[M:3/4] G,4 D,2 | F,4 C,2 | C,4 G,2 | %62
 B,4 F,2 |[M:4/4] A,4 E,4 | G,4 D,4 | F,4 C,4 | _E,4 B,,4 | B,,8 | C,8 | D,8 | E,8 | E,8 | D,8- | %73
 D,8- | D,8 | !fermata!G,,8 |] %76

